src/icons/ios-print.svg

<svg xmlns="http://www.w3.org/2000/svg" width="512" height="512" viewBox="0 0 512 512">
    <path d="M128 265v200c0 8.8 7.2 16 16 16h224c8.8 0 16-7.2 16-16V265c0-8.8-7.2-16-16-16H144c-8.8 0-16 7.2-16 16zM384 65H128c-8.8 0-16 7.2-16 16v20c0 2.2 1.8 4 4 4h280c2.2 0 4-1.8 4-4V81c0-8.8-7.2-16-16-16z"/>
    <path d="M432.5 130.5h-352c-17.6 0-32.5 13.8-32.5 31.3v174.4c0 17.5 14.9 32.3 32.5 32.3H96c4.4 0 8-3.6 8-8v-106c0-15.5 12.5-28 28-28h248c15.5 0 28 12.5 28 28v106c0 4.4 3.6 8 8 8h16.5c17.6 0 31.5-14.8 31.5-32.3V161.8c0-17.5-13.9-31.3-31.5-31.3z"/>
</svg>

<?xml version="1.0" encoding="UTF-8"?>
<svg width="512px" height="512px" viewBox="0 0 512 512" version="1.1" xmlns="http://www.w3.org/2000/svg" xmlns:xlink="http://www.w3.org/1999/xlink">
    <!-- Generator: Sketch 62 (91390) - https://sketch.com -->
    <title>ios-print</title>
    <desc>Created with Sketch.</desc>
    <g id="ios-print" stroke="none" stroke-width="1" fill="none" fill-rule="evenodd">
        <path d="M128,265 L128,465 C128,473.8 135.2,481 144,481 L368,481 C376.8,481 384,473.8 384,465 L384,265 C384,256.2 376.8,249 368,249 L144,249 C135.2,249 128,256.2 128,265 Z M384,65 L128,65 C119.2,65 112,72.2 112,81 L112,101 C112,103.2 113.8,105 116,105 L396,105 C398.2,105 400,103.2 400,101 L400,81 C400,72.2 392.8,65 384,65 Z" id="Shape" fill="#000000" fill-rule="nonzero"></path>
        <path d="M432.5,130.5 L80.5,130.5 C62.9,130.5 48,144.3 48,161.8 L48,336.2 C48,353.7 62.9,368.5 80.5,368.5 L96,368.5 C100.4,368.5 104,364.9 104,360.5 L104,254.5 C104,239 116.5,226.5 132,226.5 L380,226.5 C395.5,226.5 408,239 408,254.5 L408,360.5 C408,364.9 411.6,368.5 416,368.5 L432.5,368.5 C450.1,368.5 464,353.7 464,336.2 L464,161.8 C464,144.3 450.1,130.5 432.5,130.5 Z" id="Path" fill="#000000" fill-rule="nonzero"></path>
    </g>
</svg>
